X:1
T:Polkett efter Linus Augustsson
R:Polkett
Z:C-G Magnusson, 2008-10-10
O:Valsebo, Nssemark, Dalsland
M:2/4
L:1/8
Q:100
K:D
AB/A/ GA/G/ | FF F/A/G/F/ | Ec c/B/c | Ad d/c/d |
AB/A/ GA/G/ | FF F/A/G/F/ | Ec c/B/c | Ad d2 :|
|: A>c d/e/f | gB B/c/B | Ac c/d/e | Ad d/e/f |
Ad d/e/f | gB B/c/B | Ac c/d/e | Ad d2 :|
